X:1
T:O Bone Jesu - Dering
T:#
%%score [ 1 2 ] { ( 3 5 ) | 4 }
L:1/8
Q:1/4=120
M:4/4
K:Eb
V:1 treble nm="Soprano I" snm="S1"
V:2 treble nm="Soprano II" snm="S2"
V:3 treble nm="Accomp."
V:5 treble 
V:4 bass 
V:1
"^O Bone Jesu" c4 A4- | A2 A2 G4 | F2 z2 z4 | z8 | z4 z2 c2- | c2 _d4 c2 | B4 A2 c2 | %7
w: O bo­|* ne Je-|su,||O|* dul- cis|Je- su, O|
 G4 G2"^Richard Dering\n(c. 1580-1630)" G2- | G2 FE D2 C2 | D3 D C4 | z8 | z8 | z4 z2 c2- | %13
w: Je- su fi­|* li Ma- ri- ae|Vir- gi- nis,|||ple­|
 cG GG/G/ A3 A | G4 z2 c2- | cc cc/c/ _d3 d | cccA (G A2 G) | A2 z2 z4 ||[M:3/4] z6 x2 | %19
w: * ne mi- se- ri- cor- di-|a, ple­|* ne mi- se- ri- cor- di-|a et pi- e- ta­ * *|te.||
 c2 _d2 c2 | B4 B2 x2 | _d2 c2 c2 x2 ||[M:4/4] z8 | B3 B z BBc | _d>B dc/B/ A2 AA | G4 F2 z2 | z8 | %27
w: O bo- ne|Je- su,|O dul- cis||Je- su se- cun- dum|mag- nam mi- se- ri- cor- di- am|tu- am,||
 z4 z2 c2- | c2 c2 _d3 B | c4 B4 | z8 | z8 | z2 c3 BAA | G4 F4 ||[M:3/4] A2 F2 A2 | G4 G2 x2 | %36
w: mi­|* se- re- re|me- i,|||mi- se- re- re|me- i.|O bo- ne|Je- su,|
 B2 F2 F2 x2 ||[M:4/4] B,2 B,2 z4 | z8 | z4 z AAB | c>G cB/A/ G3 F/E/ | D4 C4 | z8 | z4 z2 B2- | %44
w: O dul- cis|Je- su,||se- cun- dum|mag- nam mi- se- ri- cor- di- am|tu- am||mi­|
 B2 =B2 c3 G | A4 G2 B2- | B2 A2 G2 F2 ||[M:3/2] (=E F2 E) F8 |] %48
w: * se- re- re|me- i, mi­|* se- re- re|me­ * * i.|
V:2
 z8 | z8 | c4 A4- | A2 A2 G4 | F4 z2 =A2- | A2 B3 F _A2- | A2 G2 A4 | z8 | z8 | z4 z2 c2 | %10
w: ||O bo­|* ne Je-|su, O|* dul- cis Je­|* * su,|||O|
 G4 G2 c2- | c2 BA GG A2- | A2 G2 A2 A2- | A=E EE/E/ F3 F | =E4 z2 =A2- | A=A AA/A/ B3 B | %16
w: Je- su fi­|* li Ma- ri- ae Vir­|* gi- nis, ple­|* ne mi- se- ri- cor- di-|a, ple­|* ne mi- se- ri- cor- di-|
 =A2 z2 z4 | z ccc (=B c2 B) ||[M:3/4] c4 z2 x2 | A2 F2 A2 | G4 G2 x2 | B2 F2 F2 x2 ||[M:4/4] z8 | %23
w: a|et pi- e- ta­ * *|te.|O bo- ne|Je- su,|O dul- cis||
 B,2 B,2 z4 | z8 | z4 z AAB | c>G cB/A/ G3 F/E/ | D4 C4 | z8 | z4 z2 B2- | B2 =B2 c3 G | %31
w: Je- su,||se- cun- dum|mag- nam mi- se- ri- cor- di- am|tu- am,||mi­|* se- re- re|
 A4 G2 B2- | B2 A2 G2 F2 | (=E F2 E) F4 ||[M:3/4] c2 _d2 c2 | B4 B2 x2 | _d2 c2 c2 x2 || %37
w: me- i, mi­|* se- re- re|me­ * * i.|O bo- ne|Je- su,|O dul- cis|
[M:4/4] B3 B z BBc | _d>B dc/B/ A2 AA | G4 F2 z2 | z8 | z4 z2 c2- | c2 c2 _d3 B | c4 B4 | z8 | z8 | %46
w: Je- su, se- cun- dum|mag- nam mi- se- ri- cor- di- am|tu- am,||mi­|* se- re- re|me- i,|||
 z2 c3 BAA ||[M:3/2] G4 F8 |] %48
w: mi- se- re- re|me- i.|
V:3
 [CFA]8- | [CFA]4 [CG]4 | [CFA]8- | [CFA]4 [CG]4 | [A,CF]4 [F=Ac]4- | [FAc]2 [FB_d]4 [E_Ac]2 | %6
 [EB]4 [CEA]4 | G8- | G8- | G4 [CEG]4 | c8- | c2 [FB]2 B4 | B4 [EAc]4- | [EAc]2 [=EG]2 [CFA]4 | %14
 G2 c6- | c4 [B_d]4 | [Fc]4 [Be]4 | x2 [EGc]2 [D=B] [Ec]2 [DB] ||[M:3/4] [EGc]4 z2 x2 | %19
 [EAc]2 x2 [EAc]2 | [EGB]4 [EGB]2 x2 | [_DFB]2 [CF=A]4 x2 ||[M:4/4] z8 | [_DFB]4 _d3 c | %24
 [_DFB]4 [CF!courtesy!_A]4 | [CG]4 [A,CF]2 [CA]2 | G2 E4 [C!courtesy!_E]2 | D4 C4 | %28
 [C=A]4 [B_d]3 [GB] | [Ac]4 x4 | x8 | [CFA]4 [C=EG]2 [GB]2- | [GB]2 [FA]2 G2 F2- | %33
 F2 =E2 [A,CF]4 ||[M:3/4] [EAc]2 x2 [EAc]2 | [EGB]4 [EGB]2 x2 | [_DFB]2 [CF=A]4 x2 || %37
[M:4/4] [_DFB]4 _d2 z c | x4 A3 G/F/ | =E F2 E [A,CF]2 [CA]2 | G2 =E4 [C_E]2 | D4 C4 | %42
 [CA]4 [_DB]3 [B,G] | [CFA]4 [=D=F_B]4 | [EGB]2 [DG=B]2 [CGc]4 | [CFA]4 [C=EG]2 [GB]2 | %46
 [GB]2 A2 G2 F2 ||[M:3/2] F2 =E2 F8 |] %48
V:4
 F,8- | F,4 C,4 | F,,8- | F,,4 C,4 | F,,4 F,4- | F,2 B,,4 C,2 | E,4 A,,4 | C,6 E,,F,, | G,,8- | %9
 G,,4 C,4 | C,8- | C,2 _D,2 E,3 D, | E,4 A,,4 | C,4 F,,4 | C,4 F,4- | F,4 B,,4 | F,4 E,4 | %17
 A,,2 C,2 G,,4 ||[M:3/4] x2 C,4 z2 | A,,2 _D,2 A,,2 | x2 E,4 E,2 | x2 B,,2 F,2 F,,2 ||[M:4/4] z8 | %23
 B,,4 B,,3 =A,, | B,,4 F,2 A,,>B,, | C,4 F,,2 F,2 | =E,2 C,4 E,,>F,, | G,,4 C,4 | F,3 F, F,4- | %29
 F,4 B,,4 | E,2 G,2 =E,4 | F,4 C,2 G,,2 | C,3 D, =E,2 F,2 | C,4 F,,4 ||[M:3/4] A,,2 _D,2 A,,2 | %35
 x2 E,4 E,2 | x2 B,,2 F,2 F,,2 ||[M:4/4] B,,4 B,,3 =A,, | B,,4 F,2 A,,>B,, | C,4 F,,2 F,2 | %40
 =E,2 C,4 E,,>F,, | G,,4 C,4 | F,3 F, F,4- | F,4 B,,4 | E,2 G,2 =E,4 | F,4 C,2 G,,2 | %46
 C,3 D, =E,2 F,2 ||[M:3/2] C,4 F,,8 |] %48
V:5
 x8 | x4 F2 =ED | x8 | x4 F2 D=E | x8 | x8 | A2 G2 x4 | [CE]8- | [CE]4 [=B,D]2 [CE]2 | C2 =B,2 x4 | %10
 [EG]8- | [EG]2 x2 G2 A2 | A2 G2 x4 | x8 | [C=E]4 [F=A]4- | [FA]4 F2 FG | =A2 _A2 G A2 G | %17
 [Ace]2 x2 G4 ||[M:3/4] x8 | x2 [FA_d]2 x2 | x8 | x8 ||[M:4/4] x8 | x4 F4 | x8 | F=E/D/ E2 x4 | %26
 C6 x2 | C2 =B,2 C4 | F8- | F4 [FBd]4 | [GBe]2 [G=Bd]2 [Gc]4 | x6 D2 | =E2 x2 CB, A,2 | %33
 [G,C]4 x4 ||[M:3/4] x2 [FA_d]2 x2 | x8 | x8 ||[M:4/4] x4 F4 | [F_d]4 C4 | [G,C]4 x4 | C6 x2 | %41
 C2 =B,2 C4 | F8 | x8 | x8 | x6 D2 | =E2 F2 CB, A,2 ||[M:3/2] [G,C]4 [A,C]8 |] %48

